svg/300/outlined/trail_length_short.svg

<svg xmlns="http://www.w3.org/2000/svg" width="48" height="48" viewBox="0 -960 960 960"><path d="M600-290.001q-71.461 0-124.961-46.307-53.5-46.308-64.192-121H170.001v-45.384h240.886q4.575-34.308 21.883-67.462t46.231-54.462h-229v-45.383H600q78.85 0 134.424 55.558 55.575 55.558 55.575 134.384t-55.575 134.441Q678.85-290.001 600-290.001Zm-.235-45.383q60.158 0 102.504-42.111 42.347-42.111 42.347-102.27 0-60.158-42.111-102.504-42.111-42.347-102.27-42.347-60.158 0-102.504 42.111-42.347 42.111-42.347 102.27 0 60.158 42.111 102.504 42.111 42.347 102.27 42.347Zm-309.764 45.383v-45.383h99.998v45.383h-99.998ZM600-480Z"/></svg>

<svg xmlns="http://www.w3.org/2000/svg" width="48" height="48" viewBox="0 -960 960 960"><path d="M600-290q-71.46 0-124.96-46.31t-64.19-121H170v-45.38h240.89q4.57-34.31 21.88-67.46 17.31-33.16 46.23-54.47H250V-670h350q78.85 0 134.42 55.56Q790-558.88 790-480.06q0 78.83-55.58 134.44Q678.85-290 600-290Zm-.24-45.38q60.16 0 102.51-42.12 42.35-42.11 42.35-102.26 0-60.16-42.12-102.51-42.11-42.35-102.26-42.35-60.16 0-102.51 42.12-42.35 42.11-42.35 102.26 0 60.16 42.12 102.51 42.11 42.35 102.26 42.35ZM290-290v-45.38h100V-290H290Zm310-190Z"/></svg>
